img/crown.svg

<svg xmlns="http://www.w3.org/2000/svg" width="100" height="100" viewBox="0 0 100 100"><path fill="#fff" d="M73.885 67.882c-.561 0-1.107-.23-1.5-.657l-10.343-11.219-10.681 10.916c-.384.392-.908.612-1.455.613h-.004c-.546 0-1.068-.22-1.453-.608l-10.808-10.973-10.389 11.271c-.558.604-1.424.814-2.197.534-.773-.281-1.301-.999-1.34-1.82l-1.224-26.106c-.04-.844.445-1.625 1.22-1.963s1.677-.165 2.271.437l11.562 11.737 10.775-11.688c.387-.419.93-.657 1.5-.657.569 0 1.113.238 1.5.657l10.811 11.727 11.52-11.772c.592-.605 1.498-.781 2.271-.443.775.338 1.263 1.12 1.223 1.965l-1.224 26.106c-.038.821-.566 1.539-1.34 1.82-.226.083-.463.123-.695.123zm-33.476-14.93l9.489 9.632 9.376-9.581-9.456-10.257-9.409 10.206zm-13.594-7.988l.746 15.907 7.215-7.826-7.961-8.081zm38.083 8.122l7.177 7.785.745-15.88-7.922 8.095zM73.885 67.882h-48.133c-1.126 0-2.04-.913-2.04-2.04 0-1.126.913-2.039 2.04-2.039h48.132c1.125 0 2.039.913 2.039 2.039.001 1.127-.913 2.04-2.038 2.04zM50.876 34.245c-.476.476-1.255.476-1.73 0l-1.478-1.478c-.476-.476-.476-1.254 0-1.73l1.478-1.477c.476-.476 1.255-.476 1.73 0l1.478 1.477c.476.476.476 1.255 0 1.73l-1.478 1.478zM76.165 34.245c-.476.476-1.254.476-1.73 0l-1.478-1.478c-.476-.476-.476-1.254 0-1.73l1.478-1.477c.477-.476 1.255-.476 1.73 0l1.479 1.477c.476.476.476 1.255 0 1.73l-1.479 1.478zM24.386 35.23c-.476.476-1.255.476-1.73 0l-1.478-1.477c-.476-.476-.476-1.255 0-1.73l1.478-1.477c.476-.477 1.254-.477 1.73 0l1.477 1.478c.476.476.476 1.254 0 1.73l-1.477 1.476zM73.885 74h-47.317c-1.126 0-2.04-.913-2.04-2.039 0-1.127.913-2.04 2.04-2.04h47.316c1.125 0 2.039.913 2.039 2.04.001 1.126-.913 2.039-2.038 2.039z"/></svg>

<svg xmlns="http://www.w3.org/2000/svg" xmlns:xlink="http://www.w3.org/1999/xlink" version="1.1" id="Your_Icon" x="0px" y="0px" width="100px" height="100px" viewBox="0 0 100 100" enable-background="new 0 0 100 100" xml:space="preserve">
<path fill="#fff" d="M73.885,67.882c-0.561,0-1.107-0.23-1.5-0.657L62.042,56.006L51.361,66.922  c-0.384,0.392-0.908,0.612-1.455,0.613c-0.001,0-0.002,0-0.004,0c-0.546,0-1.068-0.22-1.453-0.608L37.641,55.954L27.252,67.225  c-0.558,0.604-1.424,0.814-2.197,0.534c-0.773-0.281-1.301-0.999-1.34-1.82l-1.224-26.106c-0.04-0.844,0.445-1.625,1.22-1.963  s1.677-0.165,2.271,0.437l11.562,11.737l10.775-11.688c0.387-0.419,0.93-0.657,1.5-0.657c0.569,0,1.113,0.238,1.5,0.657  L62.13,50.083L73.65,38.311c0.592-0.605,1.498-0.781,2.271-0.443c0.775,0.338,1.263,1.12,1.223,1.965l-1.224,26.106  c-0.038,0.821-0.566,1.539-1.34,1.82C74.354,67.842,74.117,67.882,73.885,67.882z M40.409,52.952l9.489,9.632l9.376-9.581  l-9.456-10.257L40.409,52.952z M26.815,44.964l0.746,15.907l7.215-7.826L26.815,44.964z M64.898,53.086l7.177,7.785l0.745-15.88  L64.898,53.086z"/>
<path fill="#fff" d="M73.885,67.882H25.752c-1.126,0-2.04-0.913-2.04-2.04c0-1.126,0.913-2.039,2.04-2.039h48.132  c1.125,0,2.039,0.913,2.039,2.039C75.924,66.969,75.01,67.882,73.885,67.882z"/>
<path fill="#fff" d="M50.876,34.245c-0.476,0.476-1.255,0.476-1.73,0l-1.478-1.478c-0.476-0.476-0.476-1.254,0-1.73l1.478-1.477  c0.476-0.476,1.255-0.476,1.73,0l1.478,1.477c0.476,0.476,0.476,1.255,0,1.73L50.876,34.245z"/>
<path fill="#fff" d="M76.165,34.245c-0.476,0.476-1.254,0.476-1.73,0l-1.478-1.478c-0.476-0.476-0.476-1.254,0-1.73l1.478-1.477  c0.477-0.476,1.255-0.476,1.73,0l1.479,1.477c0.476,0.476,0.476,1.255,0,1.73L76.165,34.245z"/>
<path fill="#fff" d="M24.386,35.23c-0.476,0.476-1.255,0.476-1.73,0l-1.478-1.477c-0.476-0.476-0.476-1.255,0-1.73l1.478-1.477  c0.476-0.477,1.254-0.477,1.73,0l1.477,1.478c0.476,0.476,0.476,1.254,0,1.73L24.386,35.23z"/>
<path fill="#fff" d="M73.885,74H26.568c-1.126,0-2.04-0.913-2.04-2.039c0-1.127,0.913-2.04,2.04-2.04h47.316  c1.125,0,2.039,0.913,2.039,2.04C75.924,73.087,75.01,74,73.885,74z"/>
</svg>
